%
(Exported by FreeCAD)
(Post Processor: grbl_post)
(Output Time:2025-03-15 19:38:44.617771)
(Begin preamble)
G17 G90
G21
(Begin operation: Fixture)
(Path: Fixture)
G54
(Finish operation: Fixture)
(Begin operation: 3mm Endmill001)
(Path: 3mm Endmill001)
(3mm Endmill001)
(Begin toolchange)
( M6 T1.0 )
M3 S0.0
(Finish operation: 3mm Endmill001)
(Begin operation: Pocket_Shape)
(Path: Pocket_Shape)
(Pocket_Shape)
G0 Z5.000
G0 X0.000 Y0.000
G0 X22.820 Y22.820
G0 X22.820 Y22.820 Z3.000
G1 X22.820 Y22.820 Z-1.000 F60
G2 X21.500 Y26.042 Z-1.000 I3.186 J3.186 K0.000 F60
G1 X21.500 Y93.958 Z-1.000 F60
G2 X26.042 Y98.500 Z-1.000 I4.506 J0.036 K0.000 F60
G1 X93.958 Y98.500 Z-1.000 F60
G2 X98.500 Y93.958 Z-1.000 I0.036 J-4.506 K0.000 F60
G1 X98.500 Y26.042 Z-1.000 F60
G2 X93.958 Y21.500 Z-1.000 I-4.506 J-0.036 K0.000 F60
G1 X26.042 Y21.500 Z-1.000 F60
G2 X22.820 Y22.820 Z-1.000 I-0.036 J4.506 K0.000 F60
G0 Z5.000
G0 X41.575 Y40.957 Z5.000
G0 X41.575 Y40.957 Z3.000
G1 X41.575 Y40.957 Z-1.000 F60
G3 X42.654 Y40.500 Z-1.000 I1.078 J1.043 K0.000 F60
G1 X47.376 Y40.500 Z-1.000 F60
G3 X48.559 Y41.078 Z-1.000 I-0.000 J1.500 K0.000 F60
G1 X60.627 Y56.569 Z-1.000 F60
G1 X72.696 Y41.078 Z-1.000 F60
G3 X73.879 Y40.500 Z-1.000 I1.183 J0.922 K0.000 F60
G1 X78.585 Y40.500 Z-1.000 F60
G3 X79.780 Y42.907 Z-1.000 I-0.000 J1.500 K0.000 F60
G1 X65.225 Y62.080 Z-1.000 F60
G1 X77.131 Y77.692 Z-1.000 F60
G3 X75.938 Y80.101 Z-1.000 I-1.193 J0.910 K0.000 F60
G1 X71.363 Y80.101 Z-1.000 F60
G3 X70.169 Y79.509 Z-1.000 I0.000 J-1.500 K0.000 F60
G1 X60.627 Y66.961 Z-1.000 F60
G1 X51.069 Y79.510 Z-1.000 F60
G3 X49.876 Y80.101 Z-1.000 I-1.193 J-0.909 K0.000 F60
G1 X45.317 Y80.101 Z-1.000 F60
G3 X44.124 Y77.692 Z-1.000 I-0.000 J-1.500 K0.000 F60
G1 X56.030 Y62.080 Z-1.000 F60
G1 X41.459 Y42.908 Z-1.000 F60
G3 X41.575 Y40.957 Z-1.000 I1.194 J-0.908 K0.000 F60
G0 Z5.000
G0 X52.094 Y45.616 Z5.000
G0 X52.094 Y45.616 Z3.000
G1 X52.094 Y45.616 Z-1.000 F60
G1 X60.627 Y56.569 Z-1.000 F60
G1 X61.687 Y55.209 Z-1.000 F60
G1 X52.094 Y45.616 Z-1.000 F60
G0 Z5.000
G0 X77.525 Y40.500 Z5.000
G0 X77.525 Y40.500 Z3.000
G1 X77.525 Y40.500 Z-1.000 F60
G1 X58.525 Y21.500 Z-1.000 F60
G1 X55.131 Y21.500 Z-1.000 F60
G1 X74.131 Y40.500 Z-1.000 F60
G2 X72.696 Y41.078 Z-1.000 I-0.208 J1.554 K0.000 F60
G1 X72.091 Y41.854 Z-1.000 F60
G1 X51.737 Y21.500 Z-1.000 F60
G1 X48.343 Y21.500 Z-1.000 F60
G1 X70.605 Y43.762 Z-1.000 F60
G1 X69.119 Y45.670 Z-1.000 F60
G1 X44.949 Y21.500 Z-1.000 F60
G1 X41.555 Y21.500 Z-1.000 F60
G1 X67.632 Y47.578 Z-1.000 F60
G1 X66.146 Y49.485 Z-1.000 F60
G1 X38.161 Y21.500 Z-1.000 F60
G1 X34.767 Y21.500 Z-1.000 F60
G1 X64.660 Y51.393 Z-1.000 F60
G1 X63.173 Y53.301 Z-1.000 F60
G1 X31.372 Y21.500 Z-1.000 F60
G1 X27.978 Y21.500 Z-1.000 F60
G1 X46.978 Y40.500 Z-1.000 F60
G1 X43.584 Y40.500 Z-1.000 F60
G1 X24.766 Y21.682 Z-1.000 F60
G2 X22.673 Y22.983 Z-1.000 I1.141 J4.169 K0.000 F60
G1 X41.233 Y41.543 Z-1.000 F60
G2 X41.459 Y42.908 Z-1.000 I1.389 J0.471 K0.000 F60
G1 X48.601 Y52.305 Z-1.000 F60
G1 X21.569 Y25.273 Z-1.000 F60
G2 X21.500 Y26.042 Z-1.000 I3.380 J0.689 K0.000 F60
G1 X21.500 Y28.598 Z-1.000 F60
G1 X55.576 Y62.675 Z-1.000 F60
G1 X54.108 Y64.600 Z-1.000 F60
G1 X21.500 Y31.992 Z-1.000 F60
G1 X21.500 Y35.386 Z-1.000 F60
G1 X52.639 Y66.526 Z-1.000 F60
G1 X51.171 Y68.451 Z-1.000 F60
G1 X21.500 Y38.780 Z-1.000 F60
G1 X21.500 Y42.175 Z-1.000 F60
G1 X49.703 Y70.377 Z-1.000 F60
G1 X48.234 Y72.303 Z-1.000 F60
G1 X21.500 Y45.569 Z-1.000 F60
G1 X21.500 Y48.963 Z-1.000 F60
G1 X46.766 Y74.228 Z-1.000 F60
G1 X45.297 Y76.154 Z-1.000 F60
G1 X21.500 Y52.357 Z-1.000 F60
G1 X21.500 Y55.751 Z-1.000 F60
G1 X43.897 Y78.148 Z-1.000 F60
G2 X45.317 Y80.101 Z-1.000 I1.415 J0.464 K0.000 F60
G1 X45.850 Y80.101 Z-1.000 F60
G1 X64.249 Y98.500 Z-1.000 F60
G1 X60.855 Y98.500 Z-1.000 F60
G1 X21.500 Y59.145 Z-1.000 F60
G1 X21.500 Y62.539 Z-1.000 F60
G1 X57.461 Y98.500 Z-1.000 F60
G1 X54.067 Y98.500 Z-1.000 F60
G1 X21.500 Y65.933 Z-1.000 F60
G1 X21.500 Y69.327 Z-1.000 F60
G1 X50.673 Y98.500 Z-1.000 F60
G1 X47.278 Y98.500 Z-1.000 F60
G1 X21.500 Y72.722 Z-1.000 F60
G1 X21.500 Y76.116 Z-1.000 F60
G1 X43.884 Y98.500 Z-1.000 F60
G1 X40.490 Y98.500 Z-1.000 F60
G1 X21.500 Y79.510 Z-1.000 F60
G1 X21.500 Y82.904 Z-1.000 F60
G1 X37.096 Y98.500 Z-1.000 F60
G1 X33.702 Y98.500 Z-1.000 F60
G1 X21.500 Y86.298 Z-1.000 F60
G1 X21.500 Y89.692 Z-1.000 F60
G1 X30.308 Y98.500 Z-1.000 F60
G1 X26.914 Y98.500 Z-1.000 F60
G1 X21.500 Y93.086 Z-1.000 F60
G2 X21.531 Y94.504 Z-1.000 I12.634 J0.436 K0.000 F60
G2 X26.042 Y98.500 Z-1.000 I4.474 J-0.506 K0.000 F60
G1 X26.914 Y98.500 Z-1.000 F60
G0 Z5.000
G0 X64.249 Z5.000
G0 X64.249 Z3.000
G1 X64.249 Y98.500 Z-1.000 F60
G1 X45.850 Y80.101 Z-1.000 F60
G1 X49.244 Y80.101 Z-1.000 F60
G1 X67.643 Y98.500 Z-1.000 F60
G1 X71.037 Y98.500 Z-1.000 F60
G1 X51.492 Y78.955 Z-1.000 F60
G1 X52.959 Y77.028 Z-1.000 F60
G1 X74.431 Y98.500 Z-1.000 F60
G1 X77.825 Y98.500 Z-1.000 F60
G1 X54.427 Y75.101 Z-1.000 F60
G1 X55.894 Y73.175 Z-1.000 F60
G1 X81.220 Y98.500 Z-1.000 F60
G1 X84.614 Y98.500 Z-1.000 F60
G1 X57.362 Y71.248 Z-1.000 F60
G1 X58.829 Y69.321 Z-1.000 F60
G1 X88.008 Y98.500 Z-1.000 F60
G1 X91.402 Y98.500 Z-1.000 F60
G1 X73.003 Y80.101 Z-1.000 F60
G1 X71.363 Y80.101 Z-1.000 F60
G3 X70.169 Y79.509 Z-1.000 I0.000 J-1.500 K0.000 F60
G1 X63.051 Y70.150 Z-1.000 F60
G1 X60.296 Y67.394 Z-1.000 F60
G1 X60.627 Y66.961 Z-1.000 F60
G1 X63.051 Y70.150 Z-1.000 F60
G0 Z5.000
G0 X91.402 Y98.500 Z5.000
G0 X91.402 Y98.500 Z3.000
G1 X91.402 Y98.500 Z-1.000 F60
G1 X73.003 Y80.101 Z-1.000 F60
G1 X75.938 Y80.101 Z-1.000 F60
G2 X76.337 Y80.041 Z-1.000 I0.066 J-0.913 K0.000 F60
G1 X94.727 Y98.431 Z-1.000 F60
G2 X97.017 Y97.327 Z-1.000 I-0.656 J-4.283 K0.000 F60
G1 X76.324 Y76.634 Z-1.000 F60
G1 X65.420 Y62.336 Z-1.000 F60
G1 X98.318 Y95.234 Z-1.000 F60
G2 X98.469 Y94.504 Z-1.000 I-3.164 J-1.037 K0.000 F60
G2 X98.500 Y92.022 Z-1.000 I-22.082 J-1.514 K0.000 F60
G1 X66.663 Y60.185 Z-1.000 F60
G1 X68.128 Y58.255 Z-1.000 F60
G1 X98.500 Y88.628 Z-1.000 F60
G1 X98.500 Y85.233 Z-1.000 F60
G1 X69.593 Y56.326 Z-1.000 F60
G1 X71.057 Y54.397 Z-1.000 F60
G1 X98.500 Y81.839 Z-1.000 F60
G1 X98.500 Y78.445 Z-1.000 F60
G1 X72.522 Y52.467 Z-1.000 F60
G1 X73.987 Y50.538 Z-1.000 F60
G1 X98.500 Y75.051 Z-1.000 F60
G1 X98.500 Y71.657 Z-1.000 F60
G1 X75.451 Y48.608 Z-1.000 F60
G1 X76.916 Y46.679 Z-1.000 F60
G1 X98.500 Y68.263 Z-1.000 F60
G1 X98.500 Y64.869 Z-1.000 F60
G1 X78.381 Y44.750 Z-1.000 F60
G1 X79.780 Y42.907 Z-1.000 F60
G1 X79.837 Y42.811 Z-1.000 F60
G1 X98.500 Y61.475 Z-1.000 F60
G1 X98.500 Y58.081 Z-1.000 F60
G1 X61.919 Y21.500 Z-1.000 F60
G1 X65.314 Y21.500 Z-1.000 F60
G1 X98.500 Y54.686 Z-1.000 F60
G1 X98.500 Y51.292 Z-1.000 F60
G1 X68.708 Y21.500 Z-1.000 F60
G1 X72.102 Y21.500 Z-1.000 F60
G1 X98.500 Y47.898 Z-1.000 F60
G1 X98.500 Y44.504 Z-1.000 F60
G1 X75.496 Y21.500 Z-1.000 F60
G1 X78.890 Y21.500 Z-1.000 F60
G1 X98.500 Y41.110 Z-1.000 F60
G1 X98.500 Y37.716 Z-1.000 F60
G1 X82.284 Y21.500 Z-1.000 F60
G1 X85.678 Y21.500 Z-1.000 F60
G1 X98.500 Y34.322 Z-1.000 F60
G1 X98.500 Y30.928 Z-1.000 F60
G1 X89.072 Y21.500 Z-1.000 F60
G1 X92.467 Y21.500 Z-1.000 F60
G1 X98.500 Y27.533 Z-1.000 F60
G1 X98.500 Y26.042 Z-1.000 F60
G2 X97.180 Y22.820 Z-1.000 I-4.516 J-0.032 K0.000 F60
G1 X97.180 Y22.820 Z-2.000 F60
G3 X98.500 Y26.042 Z-2.000 I-3.197 J3.191 K0.000 F60
G1 X98.500 Y27.533 Z-2.000 F60
G1 X92.467 Y21.500 Z-2.000 F60
G1 X89.072 Y21.500 Z-2.000 F60
G1 X98.500 Y30.928 Z-2.000 F60
G1 X98.500 Y34.322 Z-2.000 F60
G1 X85.678 Y21.500 Z-2.000 F60
G1 X82.284 Y21.500 Z-2.000 F60
G1 X98.500 Y37.716 Z-2.000 F60
G1 X98.500 Y41.110 Z-2.000 F60
G1 X78.890 Y21.500 Z-2.000 F60
G1 X75.496 Y21.500 Z-2.000 F60
G1 X98.500 Y44.504 Z-2.000 F60
G1 X98.500 Y47.898 Z-2.000 F60
G1 X72.102 Y21.500 Z-2.000 F60
G1 X68.708 Y21.500 Z-2.000 F60
G1 X98.500 Y51.292 Z-2.000 F60
G1 X98.500 Y54.686 Z-2.000 F60
G1 X65.314 Y21.500 Z-2.000 F60
G1 X61.919 Y21.500 Z-2.000 F60
G1 X98.500 Y58.081 Z-2.000 F60
G1 X98.500 Y61.475 Z-2.000 F60
G1 X79.837 Y42.811 Z-2.000 F60
G1 X79.780 Y42.907 Z-2.000 F60
G1 X78.381 Y44.750 Z-2.000 F60
G1 X98.500 Y64.869 Z-2.000 F60
G1 X98.500 Y68.263 Z-2.000 F60
G1 X76.916 Y46.679 Z-2.000 F60
G1 X75.451 Y48.608 Z-2.000 F60
G1 X98.500 Y71.657 Z-2.000 F60
G1 X98.500 Y75.051 Z-2.000 F60
G1 X73.987 Y50.538 Z-2.000 F60
G1 X72.522 Y52.467 Z-2.000 F60
G1 X98.500 Y78.445 Z-2.000 F60
G1 X98.500 Y81.839 Z-2.000 F60
G1 X71.057 Y54.397 Z-2.000 F60
G1 X69.593 Y56.326 Z-2.000 F60
G1 X98.500 Y85.233 Z-2.000 F60
G1 X98.500 Y88.628 Z-2.000 F60
G1 X68.128 Y58.255 Z-2.000 F60
G1 X66.663 Y60.185 Z-2.000 F60
G1 X98.500 Y92.022 Z-2.000 F60
G3 X98.469 Y94.504 Z-2.000 I-22.113 J0.968 K0.000 F60
G3 X98.318 Y95.234 Z-2.000 I-3.315 J-0.307 K0.000 F60
G1 X65.420 Y62.336 Z-2.000 F60
G1 X76.324 Y76.634 Z-2.000 F60
G1 X97.017 Y97.327 Z-2.000 F60
G3 X94.727 Y98.431 Z-2.000 I-2.945 J-3.178 K0.000 F60
G1 X76.337 Y80.041 Z-2.000 F60
G3 X75.938 Y80.101 Z-2.000 I-0.333 J-0.852 K0.000 F60
G1 X73.003 Y80.101 Z-2.000 F60
G1 X91.402 Y98.500 Z-2.000 F60
G1 X91.402 Y98.500 Z-2.000 F60
G1 X93.958 Y98.500 Z-2.000 F60
G2 X98.500 Y93.958 Z-2.000 I0.036 J-4.506 K0.000 F60
G1 X98.500 Y26.042 Z-2.000 F60
G2 X93.958 Y21.500 Z-2.000 I-4.506 J-0.036 K0.000 F60
G1 X26.042 Y21.500 Z-2.000 F60
G2 X21.500 Y26.042 Z-2.000 I-0.036 J4.506 K0.000 F60
G1 X21.500 Y93.958 Z-2.000 F60
G2 X26.042 Y98.500 Z-2.000 I4.506 J0.036 K0.000 F60
G1 X91.402 Y98.500 Z-2.000 F60
G0 Z5.000
G0 X76.858 Y79.786 Z5.000
G0 X76.858 Y79.786 Z3.000
G1 X76.858 Y79.786 Z-2.000 F60
G3 X75.938 Y80.101 Z-2.000 I-0.920 J-1.184 K0.000 F60
G1 X71.363 Y80.101 Z-2.000 F60
G3 X70.169 Y79.509 Z-2.000 I0.000 J-1.500 K0.000 F60
G1 X60.627 Y66.961 Z-2.000 F60
G1 X51.069 Y79.510 Z-2.000 F60
G3 X49.876 Y80.101 Z-2.000 I-1.193 J-0.909 K0.000 F60
G1 X45.317 Y80.101 Z-2.000 F60
G3 X44.124 Y77.692 Z-2.000 I-0.000 J-1.500 K0.000 F60
G1 X56.030 Y62.080 Z-2.000 F60
G1 X41.459 Y42.908 Z-2.000 F60
G3 X42.654 Y40.500 Z-2.000 I1.194 J-0.908 K0.000 F60
G1 X47.376 Y40.500 Z-2.000 F60
G3 X48.559 Y41.078 Z-2.000 I-0.000 J1.500 K0.000 F60
G1 X60.627 Y56.569 Z-2.000 F60
G1 X72.696 Y41.078 Z-2.000 F60
G3 X73.879 Y40.500 Z-2.000 I1.183 J0.922 K0.000 F60
G1 X78.585 Y40.500 Z-2.000 F60
G3 X79.780 Y42.907 Z-2.000 I-0.000 J1.500 K0.000 F60
G1 X65.225 Y62.080 Z-2.000 F60
G1 X77.131 Y77.692 Z-2.000 F60
G3 X76.858 Y79.786 Z-2.000 I-1.193 J0.910 K0.000 F60
G0 Z5.000
G0 X63.051 Y70.150 Z5.000
G0 X63.051 Y70.150 Z3.000
G1 X63.051 Y70.150 Z-2.000 F60
G1 X60.627 Y66.961 Z-2.000 F60
G1 X60.296 Y67.394 Z-2.000 F60
G1 X63.051 Y70.150 Z-2.000 F60
G1 X70.169 Y79.509 Z-2.000 F60
G2 X71.363 Y80.101 Z-2.000 I1.194 J-0.908 K0.000 F60
G1 X73.003 Y80.101 Z-2.000 F60
G1 X91.402 Y98.500 Z-2.000 F60
G1 X88.008 Y98.500 Z-2.000 F60
G1 X58.829 Y69.321 Z-2.000 F60
G1 X57.362 Y71.248 Z-2.000 F60
G1 X84.614 Y98.500 Z-2.000 F60
G1 X81.220 Y98.500 Z-2.000 F60
G1 X55.894 Y73.175 Z-2.000 F60
G1 X54.427 Y75.101 Z-2.000 F60
G1 X77.825 Y98.500 Z-2.000 F60
G1 X74.431 Y98.500 Z-2.000 F60
G1 X52.959 Y77.028 Z-2.000 F60
G1 X51.492 Y78.955 Z-2.000 F60
G1 X71.037 Y98.500 Z-2.000 F60
G1 X67.643 Y98.500 Z-2.000 F60
G1 X49.244 Y80.101 Z-2.000 F60
G1 X45.850 Y80.101 Z-2.000 F60
G1 X64.249 Y98.500 Z-2.000 F60
G0 Z5.000
G0 X26.914 Z5.000
G0 X26.914 Z3.000
G1 X26.914 Y98.500 Z-2.000 F60
G1 X26.042 Y98.500 Z-2.000 F60
G3 X21.531 Y94.504 Z-2.000 I-0.037 J-4.503 K0.000 F60
G3 X21.500 Y93.086 Z-2.000 I12.604 J-0.982 K0.000 F60
G1 X26.914 Y98.500 Z-2.000 F60
G1 X30.308 Y98.500 Z-2.000 F60
G1 X21.500 Y89.692 Z-2.000 F60
G1 X21.500 Y86.298 Z-2.000 F60
G1 X33.702 Y98.500 Z-2.000 F60
G1 X37.096 Y98.500 Z-2.000 F60
G1 X21.500 Y82.904 Z-2.000 F60
G1 X21.500 Y79.510 Z-2.000 F60
G1 X40.490 Y98.500 Z-2.000 F60
G1 X43.884 Y98.500 Z-2.000 F60
G1 X21.500 Y76.116 Z-2.000 F60
G1 X21.500 Y72.722 Z-2.000 F60
G1 X47.278 Y98.500 Z-2.000 F60
G1 X50.673 Y98.500 Z-2.000 F60
G1 X21.500 Y69.327 Z-2.000 F60
G1 X21.500 Y65.933 Z-2.000 F60
G1 X54.067 Y98.500 Z-2.000 F60
G1 X57.461 Y98.500 Z-2.000 F60
G1 X21.500 Y62.539 Z-2.000 F60
G1 X21.500 Y59.145 Z-2.000 F60
G1 X60.855 Y98.500 Z-2.000 F60
G1 X64.249 Y98.500 Z-2.000 F60
G1 X45.850 Y80.101 Z-2.000 F60
G1 X45.317 Y80.101 Z-2.000 F60
G3 X43.897 Y78.148 Z-2.000 I-0.005 J-1.489 K0.000 F60
G1 X21.500 Y55.751 Z-2.000 F60
G1 X21.500 Y52.357 Z-2.000 F60
G1 X45.297 Y76.154 Z-2.000 F60
G1 X46.766 Y74.228 Z-2.000 F60
G1 X21.500 Y48.963 Z-2.000 F60
G1 X21.500 Y45.569 Z-2.000 F60
G1 X48.234 Y72.303 Z-2.000 F60
G1 X49.703 Y70.377 Z-2.000 F60
G1 X21.500 Y42.175 Z-2.000 F60
G1 X21.500 Y38.780 Z-2.000 F60
G1 X51.171 Y68.451 Z-2.000 F60
G1 X52.639 Y66.526 Z-2.000 F60
G1 X21.500 Y35.386 Z-2.000 F60
G1 X21.500 Y31.992 Z-2.000 F60
G1 X54.108 Y64.600 Z-2.000 F60
G1 X55.576 Y62.675 Z-2.000 F60
G1 X21.500 Y28.598 Z-2.000 F60
G1 X21.500 Y26.042 Z-2.000 F60
G3 X21.569 Y25.273 Z-2.000 I3.449 J-0.080 K0.000 F60
G1 X48.601 Y52.305 Z-2.000 F60
G1 X41.459 Y42.908 Z-2.000 F60
G3 X41.233 Y41.543 Z-2.000 I1.164 J-0.894 K0.000 F60
G1 X22.673 Y22.983 Z-2.000 F60
G3 X24.766 Y21.682 Z-2.000 I3.234 J2.868 K0.000 F60
G1 X43.584 Y40.500 Z-2.000 F60
G1 X46.978 Y40.500 Z-2.000 F60
G1 X27.978 Y21.500 Z-2.000 F60
G1 X31.372 Y21.500 Z-2.000 F60
G1 X63.173 Y53.301 Z-2.000 F60
G1 X64.660 Y51.393 Z-2.000 F60
G1 X34.767 Y21.500 Z-2.000 F60
G1 X38.161 Y21.500 Z-2.000 F60
G1 X66.146 Y49.485 Z-2.000 F60
G1 X67.632 Y47.578 Z-2.000 F60
G1 X41.555 Y21.500 Z-2.000 F60
G1 X44.949 Y21.500 Z-2.000 F60
G1 X69.119 Y45.670 Z-2.000 F60
G1 X70.605 Y43.762 Z-2.000 F60
G1 X48.343 Y21.500 Z-2.000 F60
G1 X51.737 Y21.500 Z-2.000 F60
G1 X72.091 Y41.854 Z-2.000 F60
G1 X72.696 Y41.078 Z-2.000 F60
G3 X74.131 Y40.500 Z-2.000 I1.227 J0.976 K0.000 F60
G1 X55.131 Y21.500 Z-2.000 F60
G1 X58.525 Y21.500 Z-2.000 F60
G1 X77.525 Y40.500 Z-2.000 F60
G0 Z5.000
G0 X61.687 Y55.209 Z5.000
G0 X61.687 Y55.209 Z3.000
G1 X61.687 Y55.209 Z-2.000 F60
G1 X52.094 Y45.616 Z-2.000 F60
G1 X60.627 Y56.569 Z-2.000 F60
G1 X61.687 Y55.209 Z-2.000 F60
G1 X61.687 Y55.209 Z-3.000 F60
G1 X52.094 Y45.616 Z-3.000 F60
G1 X60.627 Y56.569 Z-3.000 F60
G1 X61.687 Y55.209 Z-3.000 F60
G0 Z5.000
G0 Z5.000
G0 Z3.000
G1 X61.687 Y55.209 Z-3.000 F60
G1 X72.696 Y41.078 Z-3.000 F60
G3 X73.879 Y40.500 Z-3.000 I1.183 J0.922 K0.000 F60
G1 X78.585 Y40.500 Z-3.000 F60
G3 X79.780 Y42.907 Z-3.000 I-0.000 J1.500 K0.000 F60
G1 X65.225 Y62.080 Z-3.000 F60
G1 X77.131 Y77.692 Z-3.000 F60
G3 X75.938 Y80.101 Z-3.000 I-1.193 J0.910 K0.000 F60
G1 X71.363 Y80.101 Z-3.000 F60
G3 X70.169 Y79.509 Z-3.000 I0.000 J-1.500 K0.000 F60
G1 X60.627 Y66.961 Z-3.000 F60
G1 X51.069 Y79.510 Z-3.000 F60
G3 X49.876 Y80.101 Z-3.000 I-1.193 J-0.909 K0.000 F60
G1 X45.317 Y80.101 Z-3.000 F60
G3 X44.124 Y77.692 Z-3.000 I-0.000 J-1.500 K0.000 F60
G1 X56.030 Y62.080 Z-3.000 F60
G1 X41.459 Y42.908 Z-3.000 F60
G3 X42.654 Y40.500 Z-3.000 I1.194 J-0.908 K0.000 F60
G1 X47.376 Y40.500 Z-3.000 F60
G3 X48.559 Y41.078 Z-3.000 I-0.000 J1.500 K0.000 F60
G1 X60.627 Y56.569 Z-3.000 F60
G1 X61.687 Y55.209 Z-3.000 F60
G0 Z5.000
G0 X63.051 Y70.150 Z5.000
G0 X63.051 Y70.150 Z3.000
G1 X63.051 Y70.150 Z-3.000 F60
G1 X60.627 Y66.961 Z-3.000 F60
G1 X60.296 Y67.394 Z-3.000 F60
G1 X63.051 Y70.150 Z-3.000 F60
G1 X70.169 Y79.509 Z-3.000 F60
G2 X71.363 Y80.101 Z-3.000 I1.194 J-0.908 K0.000 F60
G1 X73.003 Y80.101 Z-3.000 F60
G1 X91.402 Y98.500 Z-3.000 F60
G1 X88.008 Y98.500 Z-3.000 F60
G1 X58.829 Y69.321 Z-3.000 F60
G1 X57.362 Y71.248 Z-3.000 F60
G1 X84.614 Y98.500 Z-3.000 F60
G1 X81.220 Y98.500 Z-3.000 F60
G1 X55.894 Y73.175 Z-3.000 F60
G1 X54.427 Y75.101 Z-3.000 F60
G1 X77.825 Y98.500 Z-3.000 F60
G1 X74.431 Y98.500 Z-3.000 F60
G1 X52.959 Y77.028 Z-3.000 F60
G1 X51.492 Y78.955 Z-3.000 F60
G1 X71.037 Y98.500 Z-3.000 F60
G1 X67.643 Y98.500 Z-3.000 F60
G1 X49.244 Y80.101 Z-3.000 F60
G1 X45.850 Y80.101 Z-3.000 F60
G1 X64.249 Y98.500 Z-3.000 F60
G1 X64.249 Y98.500 Z-3.000 F60
G1 X93.958 Y98.500 Z-3.000 F60
G2 X98.500 Y93.958 Z-3.000 I0.036 J-4.506 K0.000 F60
G1 X98.500 Y26.042 Z-3.000 F60
G2 X93.958 Y21.500 Z-3.000 I-4.506 J-0.036 K0.000 F60
G1 X26.042 Y21.500 Z-3.000 F60
G2 X21.500 Y26.042 Z-3.000 I-0.036 J4.506 K0.000 F60
G1 X21.500 Y93.958 Z-3.000 F60
G2 X26.042 Y98.500 Z-3.000 I4.506 J0.036 K0.000 F60
G1 X64.249 Y98.500 Z-3.000 F60
G0 Z5.000
G0 X91.402 Z5.000
G0 X91.402 Z3.000
G1 X91.402 Y98.500 Z-3.000 F60
G1 X73.003 Y80.101 Z-3.000 F60
G1 X75.938 Y80.101 Z-3.000 F60
G2 X76.337 Y80.041 Z-3.000 I0.066 J-0.913 K0.000 F60
G1 X94.727 Y98.431 Z-3.000 F60
G2 X97.017 Y97.327 Z-3.000 I-0.656 J-4.283 K0.000 F60
G1 X76.324 Y76.634 Z-3.000 F60
G1 X65.420 Y62.336 Z-3.000 F60
G1 X98.318 Y95.234 Z-3.000 F60
G2 X98.469 Y94.504 Z-3.000 I-3.164 J-1.037 K0.000 F60
G2 X98.500 Y92.022 Z-3.000 I-22.082 J-1.514 K0.000 F60
G1 X66.663 Y60.185 Z-3.000 F60
G1 X68.128 Y58.255 Z-3.000 F60
G1 X98.500 Y88.628 Z-3.000 F60
G1 X98.500 Y85.233 Z-3.000 F60
G1 X69.593 Y56.326 Z-3.000 F60
G1 X71.057 Y54.397 Z-3.000 F60
G1 X98.500 Y81.839 Z-3.000 F60
G1 X98.500 Y78.445 Z-3.000 F60
G1 X72.522 Y52.467 Z-3.000 F60
G1 X73.987 Y50.538 Z-3.000 F60
G1 X98.500 Y75.051 Z-3.000 F60
G1 X98.500 Y71.657 Z-3.000 F60
G1 X75.451 Y48.608 Z-3.000 F60
G1 X76.916 Y46.679 Z-3.000 F60
G1 X98.500 Y68.263 Z-3.000 F60
G1 X98.500 Y64.869 Z-3.000 F60
G1 X78.381 Y44.750 Z-3.000 F60
G1 X79.780 Y42.907 Z-3.000 F60
G1 X79.837 Y42.811 Z-3.000 F60
G1 X98.500 Y61.475 Z-3.000 F60
G1 X98.500 Y58.081 Z-3.000 F60
G1 X61.919 Y21.500 Z-3.000 F60
G1 X65.314 Y21.500 Z-3.000 F60
G1 X98.500 Y54.686 Z-3.000 F60
G1 X98.500 Y51.292 Z-3.000 F60
G1 X68.708 Y21.500 Z-3.000 F60
G1 X72.102 Y21.500 Z-3.000 F60
G1 X98.500 Y47.898 Z-3.000 F60
G1 X98.500 Y44.504 Z-3.000 F60
G1 X75.496 Y21.500 Z-3.000 F60
G1 X78.890 Y21.500 Z-3.000 F60
G1 X98.500 Y41.110 Z-3.000 F60
G1 X98.500 Y37.716 Z-3.000 F60
G1 X82.284 Y21.500 Z-3.000 F60
G1 X85.678 Y21.500 Z-3.000 F60
G1 X98.500 Y34.322 Z-3.000 F60
G1 X98.500 Y30.928 Z-3.000 F60
G1 X89.072 Y21.500 Z-3.000 F60
G1 X92.467 Y21.500 Z-3.000 F60
G1 X98.500 Y27.533 Z-3.000 F60
G1 X98.500 Y26.042 Z-3.000 F60
G2 X97.180 Y22.820 Z-3.000 I-4.516 J-0.032 K0.000 F60
G0 Z5.000
G0 X77.525 Y40.500 Z5.000
G0 X77.525 Y40.500 Z3.000
G1 X77.525 Y40.500 Z-3.000 F60
G1 X58.525 Y21.500 Z-3.000 F60
G1 X55.131 Y21.500 Z-3.000 F60
G1 X74.131 Y40.500 Z-3.000 F60
G2 X72.696 Y41.078 Z-3.000 I-0.208 J1.554 K0.000 F60
G1 X72.091 Y41.854 Z-3.000 F60
G1 X51.737 Y21.500 Z-3.000 F60
G1 X48.343 Y21.500 Z-3.000 F60
G1 X70.605 Y43.762 Z-3.000 F60
G1 X69.119 Y45.670 Z-3.000 F60
G1 X44.949 Y21.500 Z-3.000 F60
G1 X41.555 Y21.500 Z-3.000 F60
G1 X67.632 Y47.578 Z-3.000 F60
G1 X66.146 Y49.485 Z-3.000 F60
G1 X38.161 Y21.500 Z-3.000 F60
G1 X34.767 Y21.500 Z-3.000 F60
G1 X64.660 Y51.393 Z-3.000 F60
G1 X63.173 Y53.301 Z-3.000 F60
G1 X31.372 Y21.500 Z-3.000 F60
G1 X27.978 Y21.500 Z-3.000 F60
G1 X46.978 Y40.500 Z-3.000 F60
G1 X43.584 Y40.500 Z-3.000 F60
G1 X24.766 Y21.682 Z-3.000 F60
G2 X22.673 Y22.983 Z-3.000 I1.141 J4.169 K0.000 F60
G1 X41.233 Y41.543 Z-3.000 F60
G2 X41.459 Y42.908 Z-3.000 I1.389 J0.471 K0.000 F60
G1 X48.601 Y52.305 Z-3.000 F60
G1 X21.569 Y25.273 Z-3.000 F60
G2 X21.500 Y26.042 Z-3.000 I3.380 J0.689 K0.000 F60
G1 X21.500 Y28.598 Z-3.000 F60
G1 X55.576 Y62.675 Z-3.000 F60
G1 X54.108 Y64.600 Z-3.000 F60
G1 X21.500 Y31.992 Z-3.000 F60
G1 X21.500 Y35.386 Z-3.000 F60
G1 X52.639 Y66.526 Z-3.000 F60
G1 X51.171 Y68.451 Z-3.000 F60
G1 X21.500 Y38.780 Z-3.000 F60
G1 X21.500 Y42.175 Z-3.000 F60
G1 X49.703 Y70.377 Z-3.000 F60
G1 X48.234 Y72.303 Z-3.000 F60
G1 X21.500 Y45.569 Z-3.000 F60
G1 X21.500 Y48.963 Z-3.000 F60
G1 X46.766 Y74.228 Z-3.000 F60
G1 X45.297 Y76.154 Z-3.000 F60
G1 X21.500 Y52.357 Z-3.000 F60
G1 X21.500 Y55.751 Z-3.000 F60
G1 X43.897 Y78.148 Z-3.000 F60
G2 X45.317 Y80.101 Z-3.000 I1.415 J0.464 K0.000 F60
G1 X45.850 Y80.101 Z-3.000 F60
G1 X64.249 Y98.500 Z-3.000 F60
G1 X60.855 Y98.500 Z-3.000 F60
G1 X21.500 Y59.145 Z-3.000 F60
G1 X21.500 Y62.539 Z-3.000 F60
G1 X57.461 Y98.500 Z-3.000 F60
G1 X54.067 Y98.500 Z-3.000 F60
G1 X21.500 Y65.933 Z-3.000 F60
G1 X21.500 Y69.327 Z-3.000 F60
G1 X50.673 Y98.500 Z-3.000 F60
G1 X47.278 Y98.500 Z-3.000 F60
G1 X21.500 Y72.722 Z-3.000 F60
G1 X21.500 Y76.116 Z-3.000 F60
G1 X43.884 Y98.500 Z-3.000 F60
G1 X40.490 Y98.500 Z-3.000 F60
G1 X21.500 Y79.510 Z-3.000 F60
G1 X21.500 Y82.904 Z-3.000 F60
G1 X37.096 Y98.500 Z-3.000 F60
G1 X33.702 Y98.500 Z-3.000 F60
G1 X21.500 Y86.298 Z-3.000 F60
G1 X21.500 Y89.692 Z-3.000 F60
G1 X30.308 Y98.500 Z-3.000 F60
G1 X26.914 Y98.500 Z-3.000 F60
G1 X21.500 Y93.086 Z-3.000 F60
G2 X21.531 Y94.504 Z-3.000 I12.634 J0.436 K0.000 F60
G2 X26.042 Y98.500 Z-3.000 I4.474 J-0.506 K0.000 F60
G1 X26.914 Y98.500 Z-3.000 F60
G1 X26.914 Y98.500 Z-4.000 F60
G1 X26.042 Y98.500 Z-4.000 F60
G3 X21.531 Y94.504 Z-4.000 I-0.037 J-4.503 K0.000 F60
G3 X21.500 Y93.086 Z-4.000 I12.604 J-0.982 K0.000 F60
G1 X26.914 Y98.500 Z-4.000 F60
G1 X30.308 Y98.500 Z-4.000 F60
G1 X21.500 Y89.692 Z-4.000 F60
G1 X21.500 Y86.298 Z-4.000 F60
G1 X33.702 Y98.500 Z-4.000 F60
G1 X37.096 Y98.500 Z-4.000 F60
G1 X21.500 Y82.904 Z-4.000 F60
G1 X21.500 Y79.510 Z-4.000 F60
G1 X40.490 Y98.500 Z-4.000 F60
G1 X43.884 Y98.500 Z-4.000 F60
G1 X21.500 Y76.116 Z-4.000 F60
G1 X21.500 Y72.722 Z-4.000 F60
G1 X47.278 Y98.500 Z-4.000 F60
G1 X50.673 Y98.500 Z-4.000 F60
G1 X21.500 Y69.327 Z-4.000 F60
G1 X21.500 Y65.933 Z-4.000 F60
G1 X54.067 Y98.500 Z-4.000 F60
G1 X57.461 Y98.500 Z-4.000 F60
G1 X21.500 Y62.539 Z-4.000 F60
G1 X21.500 Y59.145 Z-4.000 F60
G1 X60.855 Y98.500 Z-4.000 F60
G1 X64.249 Y98.500 Z-4.000 F60
G1 X45.850 Y80.101 Z-4.000 F60
G1 X45.317 Y80.101 Z-4.000 F60
G3 X43.897 Y78.148 Z-4.000 I-0.005 J-1.489 K0.000 F60
G1 X21.500 Y55.751 Z-4.000 F60
G1 X21.500 Y52.357 Z-4.000 F60
G1 X45.297 Y76.154 Z-4.000 F60
G1 X46.766 Y74.228 Z-4.000 F60
G1 X21.500 Y48.963 Z-4.000 F60
G1 X21.500 Y45.569 Z-4.000 F60
G1 X48.234 Y72.303 Z-4.000 F60
G1 X49.703 Y70.377 Z-4.000 F60
G1 X21.500 Y42.175 Z-4.000 F60
G1 X21.500 Y38.780 Z-4.000 F60
G1 X51.171 Y68.451 Z-4.000 F60
G1 X52.639 Y66.526 Z-4.000 F60
G1 X21.500 Y35.386 Z-4.000 F60
G1 X21.500 Y31.992 Z-4.000 F60
G1 X54.108 Y64.600 Z-4.000 F60
G1 X55.576 Y62.675 Z-4.000 F60
G1 X21.500 Y28.598 Z-4.000 F60
G1 X21.500 Y26.042 Z-4.000 F60
G3 X21.569 Y25.273 Z-4.000 I3.449 J-0.080 K0.000 F60
G1 X48.601 Y52.305 Z-4.000 F60
G1 X41.459 Y42.908 Z-4.000 F60
G3 X41.233 Y41.543 Z-4.000 I1.164 J-0.894 K0.000 F60
G1 X22.673 Y22.983 Z-4.000 F60
G3 X24.766 Y21.682 Z-4.000 I3.234 J2.868 K0.000 F60
G1 X43.584 Y40.500 Z-4.000 F60
G1 X46.978 Y40.500 Z-4.000 F60
G1 X27.978 Y21.500 Z-4.000 F60
G1 X31.372 Y21.500 Z-4.000 F60
G1 X63.173 Y53.301 Z-4.000 F60
G1 X64.660 Y51.393 Z-4.000 F60
G1 X34.767 Y21.500 Z-4.000 F60
G1 X38.161 Y21.500 Z-4.000 F60
G1 X66.146 Y49.485 Z-4.000 F60
G1 X67.632 Y47.578 Z-4.000 F60
G1 X41.555 Y21.500 Z-4.000 F60
G1 X44.949 Y21.500 Z-4.000 F60
G1 X69.119 Y45.670 Z-4.000 F60
G1 X70.605 Y43.762 Z-4.000 F60
G1 X48.343 Y21.500 Z-4.000 F60
G1 X51.737 Y21.500 Z-4.000 F60
G1 X72.091 Y41.854 Z-4.000 F60
G1 X72.696 Y41.078 Z-4.000 F60
G3 X74.131 Y40.500 Z-4.000 I1.227 J0.976 K0.000 F60
G1 X55.131 Y21.500 Z-4.000 F60
G1 X58.525 Y21.500 Z-4.000 F60
G1 X77.525 Y40.500 Z-4.000 F60
G1 X77.525 Y40.500 Z-4.000 F60
G1 X78.585 Y40.500 Z-4.000 F60
G3 X79.780 Y42.907 Z-4.000 I-0.000 J1.500 K0.000 F60
G1 X65.225 Y62.080 Z-4.000 F60
G1 X77.131 Y77.692 Z-4.000 F60
G3 X75.938 Y80.101 Z-4.000 I-1.193 J0.910 K0.000 F60
G1 X71.363 Y80.101 Z-4.000 F60
G3 X70.169 Y79.509 Z-4.000 I0.000 J-1.500 K0.000 F60
G1 X60.627 Y66.961 Z-4.000 F60
G1 X51.069 Y79.510 Z-4.000 F60
G3 X49.876 Y80.101 Z-4.000 I-1.193 J-0.909 K0.000 F60
G1 X45.317 Y80.101 Z-4.000 F60
G3 X44.124 Y77.692 Z-4.000 I-0.000 J-1.500 K0.000 F60
G1 X56.030 Y62.080 Z-4.000 F60
G1 X41.459 Y42.908 Z-4.000 F60
G3 X42.654 Y40.500 Z-4.000 I1.194 J-0.908 K0.000 F60
G1 X47.376 Y40.500 Z-4.000 F60
G3 X48.559 Y41.078 Z-4.000 I-0.000 J1.500 K0.000 F60
G1 X60.627 Y56.569 Z-4.000 F60
G1 X72.696 Y41.078 Z-4.000 F60
G3 X73.879 Y40.500 Z-4.000 I1.183 J0.922 K0.000 F60
G1 X77.525 Y40.500 Z-4.000 F60
G0 Z5.000
G0 Y21.500 Z5.000
G0 Y21.500 Z3.000
G1 X77.525 Y21.500 Z-4.000 F60
G1 X26.042 Y21.500 Z-4.000 F60
G2 X21.500 Y26.042 Z-4.000 I-0.036 J4.506 K0.000 F60
G1 X21.500 Y93.958 Z-4.000 F60
G2 X26.042 Y98.500 Z-4.000 I4.506 J0.036 K0.000 F60
G1 X93.958 Y98.500 Z-4.000 F60
G2 X98.500 Y93.958 Z-4.000 I0.036 J-4.506 K0.000 F60
G1 X98.500 Y26.042 Z-4.000 F60
G2 X93.958 Y21.500 Z-4.000 I-4.506 J-0.036 K0.000 F60
G1 X77.525 Y21.500 Z-4.000 F60
G0 Z5.000
G0 X97.180 Y22.820 Z5.000
G0 X97.180 Y22.820 Z3.000
G1 X97.180 Y22.820 Z-4.000 F60
G3 X98.500 Y26.042 Z-4.000 I-3.197 J3.191 K0.000 F60
G1 X98.500 Y27.533 Z-4.000 F60
G1 X92.467 Y21.500 Z-4.000 F60
G1 X89.072 Y21.500 Z-4.000 F60
G1 X98.500 Y30.928 Z-4.000 F60
G1 X98.500 Y34.322 Z-4.000 F60
G1 X85.678 Y21.500 Z-4.000 F60
G1 X82.284 Y21.500 Z-4.000 F60
G1 X98.500 Y37.716 Z-4.000 F60
G1 X98.500 Y41.110 Z-4.000 F60
G1 X78.890 Y21.500 Z-4.000 F60
G1 X75.496 Y21.500 Z-4.000 F60
G1 X98.500 Y44.504 Z-4.000 F60
G1 X98.500 Y47.898 Z-4.000 F60
G1 X72.102 Y21.500 Z-4.000 F60
G1 X68.708 Y21.500 Z-4.000 F60
G1 X98.500 Y51.292 Z-4.000 F60
G1 X98.500 Y54.686 Z-4.000 F60
G1 X65.314 Y21.500 Z-4.000 F60
G1 X61.919 Y21.500 Z-4.000 F60
G1 X98.500 Y58.081 Z-4.000 F60
G1 X98.500 Y61.475 Z-4.000 F60
G1 X79.837 Y42.811 Z-4.000 F60
G1 X79.780 Y42.907 Z-4.000 F60
G1 X78.381 Y44.750 Z-4.000 F60
G1 X98.500 Y64.869 Z-4.000 F60
G1 X98.500 Y68.263 Z-4.000 F60
G1 X76.916 Y46.679 Z-4.000 F60
G1 X75.451 Y48.608 Z-4.000 F60
G1 X98.500 Y71.657 Z-4.000 F60
G1 X98.500 Y75.051 Z-4.000 F60
G1 X73.987 Y50.538 Z-4.000 F60
G1 X72.522 Y52.467 Z-4.000 F60
G1 X98.500 Y78.445 Z-4.000 F60
G1 X98.500 Y81.839 Z-4.000 F60
G1 X71.057 Y54.397 Z-4.000 F60
G1 X69.593 Y56.326 Z-4.000 F60
G1 X98.500 Y85.233 Z-4.000 F60
G1 X98.500 Y88.628 Z-4.000 F60
G1 X68.128 Y58.255 Z-4.000 F60
G1 X66.663 Y60.185 Z-4.000 F60
G1 X98.500 Y92.022 Z-4.000 F60
G3 X98.469 Y94.504 Z-4.000 I-22.113 J0.968 K0.000 F60
G3 X98.318 Y95.234 Z-4.000 I-3.315 J-0.307 K0.000 F60
G1 X65.420 Y62.336 Z-4.000 F60
G1 X76.324 Y76.634 Z-4.000 F60
G1 X97.017 Y97.327 Z-4.000 F60
G3 X94.727 Y98.431 Z-4.000 I-2.945 J-3.178 K0.000 F60
G1 X76.337 Y80.041 Z-4.000 F60
G3 X75.938 Y80.101 Z-4.000 I-0.333 J-0.852 K0.000 F60
G1 X73.003 Y80.101 Z-4.000 F60
G1 X91.402 Y98.500 Z-4.000 F60
G0 Z5.000
G0 X64.249 Z5.000
G0 X64.249 Z3.000
G1 X64.249 Y98.500 Z-4.000 F60
G1 X45.850 Y80.101 Z-4.000 F60
G1 X49.244 Y80.101 Z-4.000 F60
G1 X67.643 Y98.500 Z-4.000 F60
G1 X71.037 Y98.500 Z-4.000 F60
G1 X51.492 Y78.955 Z-4.000 F60
G1 X52.959 Y77.028 Z-4.000 F60
G1 X74.431 Y98.500 Z-4.000 F60
G1 X77.825 Y98.500 Z-4.000 F60
G1 X54.427 Y75.101 Z-4.000 F60
G1 X55.894 Y73.175 Z-4.000 F60
G1 X81.220 Y98.500 Z-4.000 F60
G1 X84.614 Y98.500 Z-4.000 F60
G1 X57.362 Y71.248 Z-4.000 F60
G1 X58.829 Y69.321 Z-4.000 F60
G1 X88.008 Y98.500 Z-4.000 F60
G1 X91.402 Y98.500 Z-4.000 F60
G1 X73.003 Y80.101 Z-4.000 F60
G1 X71.363 Y80.101 Z-4.000 F60
G3 X70.169 Y79.509 Z-4.000 I0.000 J-1.500 K0.000 F60
G1 X63.051 Y70.150 Z-4.000 F60
G1 X60.296 Y67.394 Z-4.000 F60
G1 X60.627 Y66.961 Z-4.000 F60
G1 X63.051 Y70.150 Z-4.000 F60
G0 Z5.000
G0 X60.627 Y56.569 Z5.000
G0 X60.627 Y56.569 Z3.000
G1 X60.627 Y56.569 Z-4.000 F60
G1 X61.687 Y55.209 Z-4.000 F60
G1 X52.094 Y45.616 Z-4.000 F60
G1 X60.627 Y56.569 Z-4.000 F60
G1 X60.627 Y56.569 Z-5.000 F60
G1 X61.687 Y55.209 Z-5.000 F60
G1 X52.094 Y45.616 Z-5.000 F60
G1 X60.627 Y56.569 Z-5.000 F60
G0 Z5.000
G0 Y56.569 Z5.000
G0 Y56.569 Z3.000
G1 X60.627 Y56.569 Z-5.000 F60
G1 X72.696 Y41.078 Z-5.000 F60
G3 X73.879 Y40.500 Z-5.000 I1.183 J0.922 K0.000 F60
G1 X78.585 Y40.500 Z-5.000 F60
G3 X79.780 Y42.907 Z-5.000 I-0.000 J1.500 K0.000 F60
G1 X65.225 Y62.080 Z-5.000 F60
G1 X77.131 Y77.692 Z-5.000 F60
G3 X75.938 Y80.101 Z-5.000 I-1.193 J0.910 K0.000 F60
G1 X71.363 Y80.101 Z-5.000 F60
G3 X70.169 Y79.509 Z-5.000 I0.000 J-1.500 K0.000 F60
G1 X60.627 Y66.961 Z-5.000 F60
G1 X51.069 Y79.510 Z-5.000 F60
G3 X49.876 Y80.101 Z-5.000 I-1.193 J-0.909 K0.000 F60
G1 X45.317 Y80.101 Z-5.000 F60
G3 X44.124 Y77.692 Z-5.000 I-0.000 J-1.500 K0.000 F60
G1 X56.030 Y62.080 Z-5.000 F60
G1 X41.459 Y42.908 Z-5.000 F60
G3 X42.654 Y40.500 Z-5.000 I1.194 J-0.908 K0.000 F60
G1 X47.376 Y40.500 Z-5.000 F60
G3 X48.559 Y41.078 Z-5.000 I-0.000 J1.500 K0.000 F60
G1 X60.627 Y56.569 Z-5.000 F60
G0 Z5.000
G0 X63.051 Y70.150 Z5.000
G0 X63.051 Y70.150 Z3.000
G1 X63.051 Y70.150 Z-5.000 F60
G1 X60.627 Y66.961 Z-5.000 F60
G1 X60.296 Y67.394 Z-5.000 F60
G1 X63.051 Y70.150 Z-5.000 F60
G1 X70.169 Y79.509 Z-5.000 F60
G2 X71.363 Y80.101 Z-5.000 I1.194 J-0.908 K0.000 F60
G1 X73.003 Y80.101 Z-5.000 F60
G1 X91.402 Y98.500 Z-5.000 F60
G1 X88.008 Y98.500 Z-5.000 F60
G1 X58.829 Y69.321 Z-5.000 F60
G1 X57.362 Y71.248 Z-5.000 F60
G1 X84.614 Y98.500 Z-5.000 F60
G1 X81.220 Y98.500 Z-5.000 F60
G1 X55.894 Y73.175 Z-5.000 F60
G1 X54.427 Y75.101 Z-5.000 F60
G1 X77.825 Y98.500 Z-5.000 F60
G1 X74.431 Y98.500 Z-5.000 F60
G1 X52.959 Y77.028 Z-5.000 F60
G1 X51.492 Y78.955 Z-5.000 F60
G1 X71.037 Y98.500 Z-5.000 F60
G1 X67.643 Y98.500 Z-5.000 F60
G1 X49.244 Y80.101 Z-5.000 F60
G1 X45.850 Y80.101 Z-5.000 F60
G1 X64.249 Y98.500 Z-5.000 F60
G1 X64.249 Y98.500 Z-5.000 F60
G1 X93.958 Y98.500 Z-5.000 F60
G2 X98.500 Y93.958 Z-5.000 I0.036 J-4.506 K0.000 F60
G1 X98.500 Y26.042 Z-5.000 F60
G2 X93.958 Y21.500 Z-5.000 I-4.506 J-0.036 K0.000 F60
G1 X26.042 Y21.500 Z-5.000 F60
G2 X21.500 Y26.042 Z-5.000 I-0.036 J4.506 K0.000 F60
G1 X21.500 Y93.958 Z-5.000 F60
G2 X26.042 Y98.500 Z-5.000 I4.506 J0.036 K0.000 F60
G1 X64.249 Y98.500 Z-5.000 F60
G0 Z5.000
G0 X91.402 Z5.000
G0 X91.402 Z3.000
G1 X91.402 Y98.500 Z-5.000 F60
G1 X73.003 Y80.101 Z-5.000 F60
G1 X75.938 Y80.101 Z-5.000 F60
G2 X76.337 Y80.041 Z-5.000 I0.066 J-0.913 K0.000 F60
G1 X94.727 Y98.431 Z-5.000 F60
G2 X97.017 Y97.327 Z-5.000 I-0.656 J-4.283 K0.000 F60
G1 X76.324 Y76.634 Z-5.000 F60
G1 X65.420 Y62.336 Z-5.000 F60
G1 X98.318 Y95.234 Z-5.000 F60
G2 X98.469 Y94.504 Z-5.000 I-3.164 J-1.037 K0.000 F60
G2 X98.500 Y92.022 Z-5.000 I-22.082 J-1.514 K0.000 F60
G1 X66.663 Y60.185 Z-5.000 F60
G1 X68.128 Y58.255 Z-5.000 F60
G1 X98.500 Y88.628 Z-5.000 F60
G1 X98.500 Y85.233 Z-5.000 F60
G1 X69.593 Y56.326 Z-5.000 F60
G1 X71.057 Y54.397 Z-5.000 F60
G1 X98.500 Y81.839 Z-5.000 F60
G1 X98.500 Y78.445 Z-5.000 F60
G1 X72.522 Y52.467 Z-5.000 F60
G1 X73.987 Y50.538 Z-5.000 F60
G1 X98.500 Y75.051 Z-5.000 F60
G1 X98.500 Y71.657 Z-5.000 F60
G1 X75.451 Y48.608 Z-5.000 F60
G1 X76.916 Y46.679 Z-5.000 F60
G1 X98.500 Y68.263 Z-5.000 F60
G1 X98.500 Y64.869 Z-5.000 F60
G1 X78.381 Y44.750 Z-5.000 F60
G1 X79.780 Y42.907 Z-5.000 F60
G1 X79.837 Y42.811 Z-5.000 F60
G1 X98.500 Y61.475 Z-5.000 F60
G1 X98.500 Y58.081 Z-5.000 F60
G1 X61.919 Y21.500 Z-5.000 F60
G1 X65.314 Y21.500 Z-5.000 F60
G1 X98.500 Y54.686 Z-5.000 F60
G1 X98.500 Y51.292 Z-5.000 F60
G1 X68.708 Y21.500 Z-5.000 F60
G1 X72.102 Y21.500 Z-5.000 F60
G1 X98.500 Y47.898 Z-5.000 F60
G1 X98.500 Y44.504 Z-5.000 F60
G1 X75.496 Y21.500 Z-5.000 F60
G1 X78.890 Y21.500 Z-5.000 F60
G1 X98.500 Y41.110 Z-5.000 F60
G1 X98.500 Y37.716 Z-5.000 F60
G1 X82.284 Y21.500 Z-5.000 F60
G1 X85.678 Y21.500 Z-5.000 F60
G1 X98.500 Y34.322 Z-5.000 F60
G1 X98.500 Y30.928 Z-5.000 F60
G1 X89.072 Y21.500 Z-5.000 F60
G1 X92.467 Y21.500 Z-5.000 F60
G1 X98.500 Y27.533 Z-5.000 F60
G1 X98.500 Y26.042 Z-5.000 F60
G2 X97.180 Y22.820 Z-5.000 I-4.516 J-0.032 K0.000 F60
G0 Z5.000
G0 X77.525 Y40.500 Z5.000
G0 X77.525 Y40.500 Z3.000
G1 X77.525 Y40.500 Z-5.000 F60
G1 X58.525 Y21.500 Z-5.000 F60
G1 X55.131 Y21.500 Z-5.000 F60
G1 X74.131 Y40.500 Z-5.000 F60
G2 X72.696 Y41.078 Z-5.000 I-0.208 J1.554 K0.000 F60
G1 X72.091 Y41.854 Z-5.000 F60
G1 X51.737 Y21.500 Z-5.000 F60
G1 X48.343 Y21.500 Z-5.000 F60
G1 X70.605 Y43.762 Z-5.000 F60
G1 X69.119 Y45.670 Z-5.000 F60
G1 X44.949 Y21.500 Z-5.000 F60
G1 X41.555 Y21.500 Z-5.000 F60
G1 X67.632 Y47.578 Z-5.000 F60
G1 X66.146 Y49.485 Z-5.000 F60
G1 X38.161 Y21.500 Z-5.000 F60
G1 X34.767 Y21.500 Z-5.000 F60
G1 X64.660 Y51.393 Z-5.000 F60
G1 X63.173 Y53.301 Z-5.000 F60
G1 X31.372 Y21.500 Z-5.000 F60
G1 X27.978 Y21.500 Z-5.000 F60
G1 X46.978 Y40.500 Z-5.000 F60
G1 X43.584 Y40.500 Z-5.000 F60
G1 X24.766 Y21.682 Z-5.000 F60
G2 X22.673 Y22.983 Z-5.000 I1.141 J4.169 K0.000 F60
G1 X41.233 Y41.543 Z-5.000 F60
G2 X41.459 Y42.908 Z-5.000 I1.389 J0.471 K0.000 F60
G1 X48.601 Y52.305 Z-5.000 F60
G1 X21.569 Y25.273 Z-5.000 F60
G2 X21.500 Y26.042 Z-5.000 I3.380 J0.689 K0.000 F60
G1 X21.500 Y28.598 Z-5.000 F60
G1 X55.576 Y62.675 Z-5.000 F60
G1 X54.108 Y64.600 Z-5.000 F60
G1 X21.500 Y31.992 Z-5.000 F60
G1 X21.500 Y35.386 Z-5.000 F60
G1 X52.639 Y66.526 Z-5.000 F60
G1 X51.171 Y68.451 Z-5.000 F60
G1 X21.500 Y38.780 Z-5.000 F60
G1 X21.500 Y42.175 Z-5.000 F60
G1 X49.703 Y70.377 Z-5.000 F60
G1 X48.234 Y72.303 Z-5.000 F60
G1 X21.500 Y45.569 Z-5.000 F60
G1 X21.500 Y48.963 Z-5.000 F60
G1 X46.766 Y74.228 Z-5.000 F60
G1 X45.297 Y76.154 Z-5.000 F60
G1 X21.500 Y52.357 Z-5.000 F60
G1 X21.500 Y55.751 Z-5.000 F60
G1 X43.897 Y78.148 Z-5.000 F60
G2 X45.317 Y80.101 Z-5.000 I1.415 J0.464 K0.000 F60
G1 X45.850 Y80.101 Z-5.000 F60
G1 X64.249 Y98.500 Z-5.000 F60
G1 X60.855 Y98.500 Z-5.000 F60
G1 X21.500 Y59.145 Z-5.000 F60
G1 X21.500 Y62.539 Z-5.000 F60
G1 X57.461 Y98.500 Z-5.000 F60
G1 X54.067 Y98.500 Z-5.000 F60
G1 X21.500 Y65.933 Z-5.000 F60
G1 X21.500 Y69.327 Z-5.000 F60
G1 X50.673 Y98.500 Z-5.000 F60
G1 X47.278 Y98.500 Z-5.000 F60
G1 X21.500 Y72.722 Z-5.000 F60
G1 X21.500 Y76.116 Z-5.000 F60
G1 X43.884 Y98.500 Z-5.000 F60
G1 X40.490 Y98.500 Z-5.000 F60
G1 X21.500 Y79.510 Z-5.000 F60
G1 X21.500 Y82.904 Z-5.000 F60
G1 X37.096 Y98.500 Z-5.000 F60
G1 X33.702 Y98.500 Z-5.000 F60
G1 X21.500 Y86.298 Z-5.000 F60
G1 X21.500 Y89.692 Z-5.000 F60
G1 X30.308 Y98.500 Z-5.000 F60
G1 X26.914 Y98.500 Z-5.000 F60
G1 X21.500 Y93.086 Z-5.000 F60
G2 X21.531 Y94.504 Z-5.000 I12.634 J0.436 K0.000 F60
G2 X26.042 Y98.500 Z-5.000 I4.474 J-0.506 K0.000 F60
G1 X26.914 Y98.500 Z-5.000 F60
G0 Z5.000
G0 Z5.000
(Finish operation: Pocket_Shape)
(Begin operation: Pocket_Shape001)
(Path: Pocket_Shape001)
(Pocket_Shape001)
G0 Z5.000
G0 X72.908 Y77.101
G0 Z3.000
G1 X72.908 Y77.101 Z-1.000 F60
G1 X72.107 Y77.101 Z-1.000 F60
G1 X61.821 Y63.576 Z-1.000 F60
G2 X59.434 Y63.575 Z-1.000 I-1.194 J0.908 K0.000 F60
G1 X49.133 Y77.101 Z-1.000 F60
G1 X48.347 Y77.101 Z-1.000 F60
G1 X59.108 Y62.991 Z-1.000 F60
G2 X59.109 Y61.174 Z-1.000 I-1.193 J-0.910 K0.000 F60
G1 X45.678 Y43.500 Z-1.000 F60
G1 X46.643 Y43.500 Z-1.000 F60
G1 X59.444 Y59.932 Z-1.000 F60
G2 X61.811 Y59.932 Z-1.000 I1.183 J-0.922 K0.000 F60
G1 X74.612 Y43.500 Z-1.000 F60
G1 X75.563 Y43.500 Z-1.000 F60
G1 X62.145 Y61.175 Z-1.000 F60
G2 X62.147 Y62.991 Z-1.000 I1.195 J0.907 K0.000 F60
G1 X72.908 Y77.101 Z-1.000 F60
G0 Z5.000
G0 X61.100 Y62.289 Z5.000
G0 X61.100 Y62.289 Z3.000
G1 X61.100 Y62.289 Z-1.000 F60
G2 X60.154 Y62.288 Z-1.000 I-0.475 J1.998 K0.000 F60
G2 X59.957 Y61.150 Z-1.000 I-2.110 J-0.221 K0.000 F60
G2 X61.300 Y61.147 Z-1.000 I0.668 J-1.966 K0.000 F60
G2 X61.100 Y62.289 Z-1.000 I1.964 J0.932 K0.000 F60
G1 X61.100 Y62.289 Z-2.000 F60
G2 X60.154 Y62.288 Z-2.000 I-0.475 J1.998 K0.000 F60
G2 X59.957 Y61.150 Z-2.000 I-2.110 J-0.221 K0.000 F60
G2 X61.300 Y61.147 Z-2.000 I0.668 J-1.966 K0.000 F60
G2 X61.100 Y62.289 Z-2.000 I1.964 J0.932 K0.000 F60
G0 Z5.000
G0 X60.943 Y63.017 Z5.000
G0 X60.943 Y63.017 Z3.000
G1 X60.943 Y63.017 Z-2.000 F60
G2 X59.434 Y63.575 Z-2.000 I-0.316 J1.466 K0.000 F60
G1 X49.133 Y77.101 Z-2.000 F60
G1 X48.347 Y77.101 Z-2.000 F60
G1 X59.108 Y62.991 Z-2.000 F60
G2 X59.109 Y61.174 Z-2.000 I-1.193 J-0.910 K0.000 F60
G1 X45.678 Y43.500 Z-2.000 F60
G1 X46.643 Y43.500 Z-2.000 F60
G1 X59.444 Y59.932 Z-2.000 F60
G2 X61.811 Y59.932 Z-2.000 I1.183 J-0.922 K0.000 F60
G1 X74.612 Y43.500 Z-2.000 F60
G1 X75.563 Y43.500 Z-2.000 F60
G1 X62.145 Y61.175 Z-2.000 F60
G2 X62.147 Y62.991 Z-2.000 I1.195 J0.907 K0.000 F60
G1 X72.908 Y77.101 Z-2.000 F60
G1 X72.107 Y77.101 Z-2.000 F60
G1 X61.821 Y63.576 Z-2.000 F60
G2 X60.943 Y63.017 Z-2.000 I-1.194 J0.908 K0.000 F60
G1 X60.943 Y63.017 Z-3.000 F60
G2 X59.434 Y63.575 Z-3.000 I-0.316 J1.466 K0.000 F60
G1 X49.133 Y77.101 Z-3.000 F60
G1 X48.347 Y77.101 Z-3.000 F60
G1 X59.108 Y62.991 Z-3.000 F60
G2 X59.109 Y61.174 Z-3.000 I-1.193 J-0.910 K0.000 F60
G1 X45.678 Y43.500 Z-3.000 F60
G1 X46.643 Y43.500 Z-3.000 F60
G1 X59.444 Y59.932 Z-3.000 F60
G2 X61.811 Y59.932 Z-3.000 I1.183 J-0.922 K0.000 F60
G1 X74.612 Y43.500 Z-3.000 F60
G1 X75.563 Y43.500 Z-3.000 F60
G1 X62.145 Y61.175 Z-3.000 F60
G2 X62.147 Y62.991 Z-3.000 I1.195 J0.907 K0.000 F60
G1 X72.908 Y77.101 Z-3.000 F60
G1 X72.107 Y77.101 Z-3.000 F60
G1 X61.821 Y63.576 Z-3.000 F60
G2 X60.943 Y63.017 Z-3.000 I-1.194 J0.908 K0.000 F60
G0 Z5.000
G0 X61.100 Y62.289 Z5.000
G0 X61.100 Y62.289 Z3.000
G1 X61.100 Y62.289 Z-3.000 F60
G2 X60.154 Y62.288 Z-3.000 I-0.475 J1.998 K0.000 F60
G2 X59.957 Y61.150 Z-3.000 I-2.110 J-0.221 K0.000 F60
G2 X61.300 Y61.147 Z-3.000 I0.668 J-1.966 K0.000 F60
G2 X61.100 Y62.289 Z-3.000 I1.964 J0.932 K0.000 F60
G1 X61.100 Y62.289 Z-4.000 F60
G2 X60.154 Y62.288 Z-4.000 I-0.475 J1.998 K0.000 F60
G2 X59.957 Y61.150 Z-4.000 I-2.110 J-0.221 K0.000 F60
G2 X61.300 Y61.147 Z-4.000 I0.668 J-1.966 K0.000 F60
G2 X61.100 Y62.289 Z-4.000 I1.964 J0.932 K0.000 F60
G0 Z5.000
G0 X60.943 Y63.017 Z5.000
G0 X60.943 Y63.017 Z3.000
G1 X60.943 Y63.017 Z-4.000 F60
G2 X59.434 Y63.575 Z-4.000 I-0.316 J1.466 K0.000 F60
G1 X49.133 Y77.101 Z-4.000 F60
G1 X48.347 Y77.101 Z-4.000 F60
G1 X59.108 Y62.991 Z-4.000 F60
G2 X59.109 Y61.174 Z-4.000 I-1.193 J-0.910 K0.000 F60
G1 X45.678 Y43.500 Z-4.000 F60
G1 X46.643 Y43.500 Z-4.000 F60
G1 X59.444 Y59.932 Z-4.000 F60
G2 X61.811 Y59.932 Z-4.000 I1.183 J-0.922 K0.000 F60
G1 X74.612 Y43.500 Z-4.000 F60
G1 X75.563 Y43.500 Z-4.000 F60
G1 X62.145 Y61.175 Z-4.000 F60
G2 X62.147 Y62.991 Z-4.000 I1.195 J0.907 K0.000 F60
G1 X72.908 Y77.101 Z-4.000 F60
G1 X72.107 Y77.101 Z-4.000 F60
G1 X61.821 Y63.576 Z-4.000 F60
G2 X60.943 Y63.017 Z-4.000 I-1.194 J0.908 K0.000 F60
G1 X60.943 Y63.017 Z-5.000 F60
G2 X59.434 Y63.575 Z-5.000 I-0.316 J1.466 K0.000 F60
G1 X49.133 Y77.101 Z-5.000 F60
G1 X48.347 Y77.101 Z-5.000 F60
G1 X59.108 Y62.991 Z-5.000 F60
G2 X59.109 Y61.174 Z-5.000 I-1.193 J-0.910 K0.000 F60
G1 X45.678 Y43.500 Z-5.000 F60
G1 X46.643 Y43.500 Z-5.000 F60
G1 X59.444 Y59.932 Z-5.000 F60
G2 X61.811 Y59.932 Z-5.000 I1.183 J-0.922 K0.000 F60
G1 X74.612 Y43.500 Z-5.000 F60
G1 X75.563 Y43.500 Z-5.000 F60
G1 X62.145 Y61.175 Z-5.000 F60
G2 X62.147 Y62.991 Z-5.000 I1.195 J0.907 K0.000 F60
G1 X72.908 Y77.101 Z-5.000 F60
G1 X72.107 Y77.101 Z-5.000 F60
G1 X61.821 Y63.576 Z-5.000 F60
G2 X60.943 Y63.017 Z-5.000 I-1.194 J0.908 K0.000 F60
G0 Z5.000
G0 X61.100 Y62.289 Z5.000
G0 X61.100 Y62.289 Z3.000
G1 X61.100 Y62.289 Z-5.000 F60
G2 X60.154 Y62.288 Z-5.000 I-0.475 J1.998 K0.000 F60
G2 X59.957 Y61.150 Z-5.000 I-2.110 J-0.221 K0.000 F60
G2 X61.300 Y61.147 Z-5.000 I0.668 J-1.966 K0.000 F60
G2 X61.100 Y62.289 Z-5.000 I1.964 J0.932 K0.000 F60
G1 X61.100 Y62.289 Z-6.000 F60
G2 X60.154 Y62.288 Z-6.000 I-0.475 J1.998 K0.000 F60
G2 X59.957 Y61.150 Z-6.000 I-2.110 J-0.221 K0.000 F60
G2 X61.300 Y61.147 Z-6.000 I0.668 J-1.966 K0.000 F60
G2 X61.100 Y62.289 Z-6.000 I1.964 J0.932 K0.000 F60
G0 Z5.000
G0 X60.943 Y63.017 Z5.000
G0 X60.943 Y63.017 Z3.000
G1 X60.943 Y63.017 Z-6.000 F60
G2 X59.434 Y63.575 Z-6.000 I-0.316 J1.466 K0.000 F60
G1 X49.133 Y77.101 Z-6.000 F60
G1 X48.347 Y77.101 Z-6.000 F60
G1 X59.108 Y62.991 Z-6.000 F60
G2 X59.109 Y61.174 Z-6.000 I-1.193 J-0.910 K0.000 F60
G1 X45.678 Y43.500 Z-6.000 F60
G1 X46.643 Y43.500 Z-6.000 F60
G1 X59.444 Y59.932 Z-6.000 F60
G2 X61.811 Y59.932 Z-6.000 I1.183 J-0.922 K0.000 F60
G1 X74.612 Y43.500 Z-6.000 F60
G1 X75.563 Y43.500 Z-6.000 F60
G1 X62.145 Y61.175 Z-6.000 F60
G2 X62.147 Y62.991 Z-6.000 I1.195 J0.907 K0.000 F60
G1 X72.908 Y77.101 Z-6.000 F60
G1 X72.107 Y77.101 Z-6.000 F60
G1 X61.821 Y63.576 Z-6.000 F60
G2 X60.943 Y63.017 Z-6.000 I-1.194 J0.908 K0.000 F60
G1 X60.943 Y63.017 Z-7.000 F60
G2 X59.434 Y63.575 Z-7.000 I-0.316 J1.466 K0.000 F60
G1 X49.133 Y77.101 Z-7.000 F60
G1 X48.347 Y77.101 Z-7.000 F60
G1 X59.108 Y62.991 Z-7.000 F60
G2 X59.109 Y61.174 Z-7.000 I-1.193 J-0.910 K0.000 F60
G1 X45.678 Y43.500 Z-7.000 F60
G1 X46.643 Y43.500 Z-7.000 F60
G1 X59.444 Y59.932 Z-7.000 F60
G2 X61.811 Y59.932 Z-7.000 I1.183 J-0.922 K0.000 F60
G1 X74.612 Y43.500 Z-7.000 F60
G1 X75.563 Y43.500 Z-7.000 F60
G1 X62.145 Y61.175 Z-7.000 F60
G2 X62.147 Y62.991 Z-7.000 I1.195 J0.907 K0.000 F60
G1 X72.908 Y77.101 Z-7.000 F60
G1 X72.107 Y77.101 Z-7.000 F60
G1 X61.821 Y63.576 Z-7.000 F60
G2 X60.943 Y63.017 Z-7.000 I-1.194 J0.908 K0.000 F60
G0 Z5.000
G0 X61.100 Y62.289 Z5.000
G0 X61.100 Y62.289 Z3.000
G1 X61.100 Y62.289 Z-7.000 F60
G2 X60.154 Y62.288 Z-7.000 I-0.475 J1.998 K0.000 F60
G2 X59.957 Y61.150 Z-7.000 I-2.110 J-0.221 K0.000 F60
G2 X61.300 Y61.147 Z-7.000 I0.668 J-1.966 K0.000 F60
G2 X61.100 Y62.289 Z-7.000 I1.964 J0.932 K0.000 F60
G1 X61.100 Y62.289 Z-8.000 F60
G2 X60.154 Y62.288 Z-8.000 I-0.475 J1.998 K0.000 F60
G2 X59.957 Y61.150 Z-8.000 I-2.110 J-0.221 K0.000 F60
G2 X61.300 Y61.147 Z-8.000 I0.668 J-1.966 K0.000 F60
G2 X61.100 Y62.289 Z-8.000 I1.964 J0.932 K0.000 F60
G0 Z5.000
G0 X60.943 Y63.017 Z5.000
G0 X60.943 Y63.017 Z3.000
G1 X60.943 Y63.017 Z-8.000 F60
G2 X59.434 Y63.575 Z-8.000 I-0.316 J1.466 K0.000 F60
G1 X49.133 Y77.101 Z-8.000 F60
G1 X48.347 Y77.101 Z-8.000 F60
G1 X59.108 Y62.991 Z-8.000 F60
G2 X59.109 Y61.174 Z-8.000 I-1.193 J-0.910 K0.000 F60
G1 X45.678 Y43.500 Z-8.000 F60
G1 X46.643 Y43.500 Z-8.000 F60
G1 X59.444 Y59.932 Z-8.000 F60
G2 X61.811 Y59.932 Z-8.000 I1.183 J-0.922 K0.000 F60
G1 X74.612 Y43.500 Z-8.000 F60
G1 X75.563 Y43.500 Z-8.000 F60
G1 X62.145 Y61.175 Z-8.000 F60
G2 X62.147 Y62.991 Z-8.000 I1.195 J0.907 K0.000 F60
G1 X72.908 Y77.101 Z-8.000 F60
G1 X72.107 Y77.101 Z-8.000 F60
G1 X61.821 Y63.576 Z-8.000 F60
G2 X60.943 Y63.017 Z-8.000 I-1.194 J0.908 K0.000 F60
G0 Z5.000
G0 Z5.000
(Finish operation: Pocket_Shape001)
(Begin postamble)
M5
G17 G90
M2
